X:1
T:Title
%%score { 1 | 2 }
L:1/8
M:3/4
K:Ab
V:1 treble nm="Grand Piano"
V:2 bass 
V:1
 z2 z2[Q:1/4=94] [CE]>[CE] | [CA]3 [CE] [CA][Ec] | c .B3 E>E | B3 E Bd |[M:2/4] d .c3 | %5
[M:1/4] [CA]>[EG] |[M:3/4] [DF]3 [FA] [EG][DF] | [DF] .[CE]3 [CE]>[CE] | G3 E c>B | %9
[M:2/4] [DB] [CA]3 |[M:1/4] e>e |[M:3/4] e3 c Ac | c .B3 B>c | d3 c Bd |[M:2/4] d .c3 | %15
[M:1/4] [CA]>[EG] |[M:3/4] [DF]3 [FA] [EG][DF] | [DF] .[CE]3 [CE]>[CE] | %18
 G3 E c>B[Q:1/4=93][Q:1/4=91][Q:1/4=90][Q:1/4=88][Q:1/4=87][Q:1/4=86][Q:1/4=84][Q:1/4=83][Q:1/4=82][Q:1/4=80][Q:1/4=79][Q:1/4=77] | %19
[M:2/4] [DB] [CA]3[Q:1/4=76][Q:1/4=75][Q:1/4=73][Q:1/4=72] |] %20
V:2
 z2 z2 [A,,A,]>[A,,A,] | [A,,A,]3 [A,,A,] [A,,A,][A,,A,] | [E,A,E] .[E,G,E]3 [E,G,]>[E,G,] | %3
 [E,G,E]3 [E,G,] [E,G,E][E,B,E] |[M:2/4][K:treble] [A,F] .[A,E]3 |[M:1/4][K:bass] [A,,A,]>[A,,A,] | %6
[M:3/4] [D,A,]3 [D,A,] [D,A,][D,A,] | [A,,A,] .[A,,A,]3 [A,,A,]>[A,,A,] | %8
 [E,B,D]3 [E,B,D] [E,A,E]>[E,G,D] |[M:2/4] [A,,A,] [A,,A,]3 |[M:1/4][K:treble] [A,CA]>[A,CA] | %11
[M:3/4] [A,CA]3 [A,E] [A,CE][K:bass][A,E] | [E,A,E] .[E,G,E]3 [E,G,E]>[E,A,E] | %13
 [E,B,E]3 [E,A,E] [E,G,E][E,B,E] |[M:2/4][K:treble] [A,F] .[A,E]3 | %15
[M:1/4][K:bass] [A,,A,]>[A,,A,] |[M:3/4] [D,A,]3 [D,A,] [D,A,][D,A,] | %17
 [A,,A,] .[A,,A,]3 [A,,A,]>[A,,A,] | [E,B,D]3 [E,B,D] [E,A,E]>[E,G,D] |[M:2/4] [A,,A,] [A,,A,]3 |] %20

